assets/Night with stars/Flat/night_with_stars_flat.svg

<svg width="32" height="32" viewBox="0 0 32 32" fill="none" xmlns="http://www.w3.org/2000/svg">
<path d="M2 6C2 3.79086 3.79086 2 6 2H26C28.2091 2 30 3.79086 30 6V20L2 15V6Z" fill="#7167A4"/>
<path d="M6.9651 30H8.9925L13 29V9V8V7.25C13 6.55964 12.4404 6 11.75 6H10.25C9.55964 6 9 6.55964 9 7.25V8H5.25C4.55964 8 4 8.55964 4 9.25V28.4649L6.9651 30ZM18 29L20.9956 30H23.0053L28 28.4649V17.25C28 16.5596 27.4404 16 26.75 16H19.25C18.5596 16 18 16.5596 18 17.25V29Z" fill="#212121"/>
<path d="M2 14V26C2 28.2091 3.79086 30 6 30H7V15.25C7 14.5596 6.44036 14 5.75 14H2ZM9 30H17H19H21V24.25C21 23.5596 20.4404 23 19.75 23H19V12.25C19 11.5596 18.4404 11 17.75 11H10.25C9.55964 11 9 11.5596 9 12.25V30ZM23 30H26C28.2091 30 30 28.2091 30 26V19H24.25C23.5596 19 23 19.5596 23 20.25V30Z" fill="#433B6B"/>
<path d="M11.5 13C11.2239 13 11 13.2239 11 13.5V14.5C11 14.7761 11.2239 15 11.5 15H12.5C12.7761 15 13 14.7761 13 14.5V13.5C13 13.2239 12.7761 13 12.5 13H11.5ZM3.5 20C3.22386 20 3 20.2239 3 20.5V21.5C3 21.7761 3.22386 22 3.5 22H4.5C4.77614 22 5 21.7761 5 21.5V20.5C5 20.2239 4.77614 20 4.5 20H3.5ZM11 17.5C11 17.2239 11.2239 17 11.5 17H12.5C12.7761 17 13 17.2239 13 17.5V18.5C13 18.7761 12.7761 19 12.5 19H11.5C11.2239 19 11 18.7761 11 18.5V17.5ZM11.5 25C11.2239 25 11 25.2239 11 25.5V26.5C11 26.7761 11.2239 27 11.5 27H12.5C12.7761 27 13 26.7761 13 26.5V25.5C13 25.2239 12.7761 25 12.5 25H11.5ZM15 17.5C15 17.2239 15.2239 17 15.5 17H16.5C16.7761 17 17 17.2239 17 17.5V18.5C17 18.7761 16.7761 19 16.5 19H15.5C15.2239 19 15 18.7761 15 18.5V17.5ZM15.5 21C15.2239 21 15 21.2239 15 21.5V22.5C15 22.7761 15.2239 23 15.5 23H16.5C16.7761 23 17 22.7761 17 22.5V21.5C17 21.2239 16.7761 21 16.5 21H15.5ZM24 22C24 21.4477 24.4477 21 25 21H30V23H25C24.4477 23 24 22.5523 24 22ZM25 25C24.4477 25 24 25.4477 24 26C24 26.5523 24.4477 27 25 27H30V25H25Z" fill="#FFF478"/>
<path d="M11.5 13C11.2239 13 11 13.2239 11 13.5H12C12.2761 13.5 12.5 13.7239 12.5 14V15C12.7761 15 13 14.7761 13 14.5V13.5C13 13.2239 12.7761 13 12.5 13H11.5Z" fill="#FCD53F"/>
<path d="M3.5 20C3.22386 20 3 20.2239 3 20.5H4C4.27614 20.5 4.5 20.7239 4.5 21V22C4.77614 22 5 21.7761 5 21.5V20.5C5 20.2239 4.77614 20 4.5 20H3.5Z" fill="#FCD53F"/>
<path d="M11 17.5C11 17.2239 11.2239 17 11.5 17H12.5C12.7761 17 13 17.2239 13 17.5V18.5C13 18.7761 12.7761 19 12.5 19V18C12.5 17.7239 12.2761 17.5 12 17.5H11Z" fill="#FCD53F"/>
<path d="M11.5 25C11.2239 25 11 25.2239 11 25.5H12C12.2761 25.5 12.5 25.7239 12.5 26V27C12.7761 27 13 26.7761 13 26.5V25.5C13 25.2239 12.7761 25 12.5 25H11.5Z" fill="#FCD53F"/>
<path d="M15 17.5C15 17.2239 15.2239 17 15.5 17H16.5C16.7761 17 17 17.2239 17 17.5V18.5C17 18.7761 16.7761 19 16.5 19V18C16.5 17.7239 16.2761 17.5 16 17.5H15Z" fill="#FCD53F"/>
<path d="M15.5 21C15.2239 21 15 21.2239 15 21.5H16C16.2761 21.5 16.5 21.7239 16.5 22V23C16.7761 23 17 22.7761 17 22.5V21.5C17 21.2239 16.7761 21 16.5 21H15.5Z" fill="#FCD53F"/>
<path d="M25 21C24.6299 21 24.3067 21.2011 24.1338 21.5H30V21H25Z" fill="#FCD53F"/>
<path d="M25 25C24.6299 25 24.3067 25.2011 24.1338 25.5H30V25H25Z" fill="#FCD53F"/>
<path d="M15 13.5C15 13.2239 15.2239 13 15.5 13H16.5C16.7761 13 17 13.2239 17 13.5V14.5C17 14.7761 16.7761 15 16.5 15H15.5C15.2239 15 15 14.7761 15 14.5V13.5ZM3 16.5C3 16.2239 3.22386 16 3.5 16H4.5C4.77614 16 5 16.2239 5 16.5V17.5C5 17.7761 4.77614 18 4.5 18H3.5C3.22386 18 3 17.7761 3 17.5V16.5ZM3 24.5C3 24.2239 3.22386 24 3.5 24H4.5C4.77614 24 5 24.2239 5 24.5V25.5C5 25.7761 4.77614 26 4.5 26H3.5C3.22386 26 3 25.7761 3 25.5V24.5ZM11.5 21C11.2239 21 11 21.2239 11 21.5V22.5C11 22.7761 11.2239 23 11.5 23H12.5C12.7761 23 13 22.7761 13 22.5V21.5C13 21.2239 12.7761 21 12.5 21H11.5ZM15.5 25C15.2239 25 15 25.2239 15 25.5V26.5C15 26.7761 15.2239 27 15.5 27H16.5C16.7761 27 17 26.7761 17 26.5V25.5C17 25.2239 16.7761 25 16.5 25H15.5Z" fill="#212121"/>
<path d="M15 11H17V11.5H15V11Z" fill="#433B6B"/>
<path d="M20.5 24C20.5 23.7239 20.2761 23.5 20 23.5H18.75C18.6119 23.5 18.5 23.3881 18.5 23.25V12C18.5 11.7239 18.2761 11.5 18 11.5H17V11H18C18.5523 11 19 11.4477 19 12V23H20C20.5523 23 21 23.4477 21 24V30H20.5V24Z" fill="#433B6B"/>
<path d="M22 9.50001C23.933 9.50001 25.5 7.93301 25.5 6.00001C25.5 5.69824 25.4618 5.40539 25.39 5.12603C25.3293 4.8897 25.5764 4.6717 25.7625 4.82952C26.5196 5.47153 27 6.42966 27 7.50001C27 9.43301 25.433 11 23.5 11C22.4297 11 21.4715 10.5196 20.8295 9.76253C20.6717 9.57643 20.8897 9.32926 21.126 9.39001C21.4054 9.46182 21.6982 9.50001 22 9.50001Z" fill="#F9C23C"/>
<path d="M5.07454 3.85099L5.2764 3.44728C5.36853 3.26302 5.63148 3.26302 5.72361 3.44728L5.92547 3.85099C5.97385 3.94776 6.05231 4.02622 6.14908 4.0746L6.55279 4.27646C6.73705 4.36859 6.73705 4.63154 6.55279 4.72367L6.14908 4.92553C6.05231 4.97391 5.97385 5.05237 5.92547 5.14914L5.72361 5.55285C5.63148 5.73711 5.36853 5.73711 5.2764 5.55285L5.07454 5.14914C5.02616 5.05237 4.9477 4.97391 4.85093 4.92553L4.44722 4.72367C4.26296 4.63154 4.26296 4.36859 4.44722 4.27646L4.85093 4.0746C4.9477 4.02622 5.02616 3.94776 5.07454 3.85099ZM21.2764 3.44728L21.0745 3.85099C21.0262 3.94776 20.9477 4.02622 20.8509 4.0746L20.4472 4.27646C20.263 4.36859 20.263 4.63154 20.4472 4.72367L20.8509 4.92553C20.9477 4.97391 21.0262 5.05237 21.0745 5.14914L21.2764 5.55285C21.3685 5.73711 21.6315 5.73711 21.7236 5.55285L21.9255 5.14914C21.9739 5.05237 22.0523 4.97391 22.1491 4.92553L22.5528 4.72367C22.7371 4.63154 22.7371 4.36859 22.5528 4.27646L22.1491 4.0746C22.0523 4.02622 21.9739 3.94776 21.9255 3.85099L21.7236 3.44728C21.6315 3.26302 21.3685 3.26302 21.2764 3.44728ZM27.2764 11.4473L27.0745 11.851C27.0262 11.9478 26.9477 12.0262 26.8509 12.0746L26.4472 12.2765C26.263 12.3686 26.263 12.6315 26.4472 12.7237L26.8509 12.9255C26.9477 12.9739 27.0262 13.0524 27.0745 13.1491L27.2764 13.5529C27.3685 13.7371 27.6315 13.7371 27.7236 13.5529L27.9255 13.1491C27.9739 13.0524 28.0523 12.9739 28.1491 12.9255L28.5528 12.7237C28.7371 12.6315 28.7371 12.3686 28.5528 12.2765L28.1491 12.0746C28.0523 12.0262 27.9739 11.9478 27.9255 11.851L27.7236 11.4473C27.6315 11.263 27.3685 11.263 27.2764 11.4473ZM16.2764 5.94728L15.9079 6.68433C15.8595 6.78109 15.781 6.85955 15.6843 6.90793L14.9472 7.27646C14.763 7.36859 14.763 7.63154 14.9472 7.72367L15.6843 8.0922C15.781 8.14058 15.8595 8.21904 15.9079 8.3158L16.2764 9.05285C16.3685 9.23711 16.6315 9.23711 16.7236 9.05285L17.0921 8.3158C17.1405 8.21904 17.219 8.14058 17.3157 8.0922L18.0528 7.72367C18.2371 7.63154 18.2371 7.36859 18.0528 7.27646L17.3157 6.90793C17.219 6.85955 17.1405 6.78109 17.0921 6.68433L16.7236 5.94728C16.6315 5.76302 16.3685 5.76302 16.2764 5.94728Z" fill="#F3EEF8"/>
</svg>

<svg xmlns="http://www.w3.org/2000/svg" width="32" height="32" fill="none"><path fill="#7167A4" d="M2 6a4 4 0 0 1 4-4h20a4 4 0 0 1 4 4v14L2 15V6Z"/><path fill="#212121" d="M6.965 30h2.027L13 29V7.25C13 6.56 12.44 6 11.75 6h-1.5C9.56 6 9 6.56 9 7.25V8H5.25C4.56 8 4 8.56 4 9.25v19.215L6.965 30ZM18 29l2.996 1h2.01L28 28.465V17.25c0-.69-.56-1.25-1.25-1.25h-7.5c-.69 0-1.25.56-1.25 1.25V29Z"/><path fill="#433B6B" d="M2 14v12a4 4 0 0 0 4 4h1V15.25C7 14.56 6.44 14 5.75 14H2Zm7 16h12v-5.75c0-.69-.56-1.25-1.25-1.25H19V12.25c0-.69-.56-1.25-1.25-1.25h-7.5C9.56 11 9 11.56 9 12.25V30Zm14 0h3a4 4 0 0 0 4-4v-7h-5.75c-.69 0-1.25.56-1.25 1.25V30Z"/><path fill="#FFF478" d="M11.5 13a.5.5 0 0 0-.5.5v1a.5.5 0 0 0 .5.5h1a.5.5 0 0 0 .5-.5v-1a.5.5 0 0 0-.5-.5h-1Zm-8 7a.5.5 0 0 0-.5.5v1a.5.5 0 0 0 .5.5h1a.5.5 0 0 0 .5-.5v-1a.5.5 0 0 0-.5-.5h-1Zm7.5-2.5a.5.5 0 0 1 .5-.5h1a.5.5 0 0 1 .5.5v1a.5.5 0 0 1-.5.5h-1a.5.5 0 0 1-.5-.5v-1Zm.5 7.5a.5.5 0 0 0-.5.5v1a.5.5 0 0 0 .5.5h1a.5.5 0 0 0 .5-.5v-1a.5.5 0 0 0-.5-.5h-1Zm3.5-7.5a.5.5 0 0 1 .5-.5h1a.5.5 0 0 1 .5.5v1a.5.5 0 0 1-.5.5h-1a.5.5 0 0 1-.5-.5v-1Zm.5 3.5a.5.5 0 0 0-.5.5v1a.5.5 0 0 0 .5.5h1a.5.5 0 0 0 .5-.5v-1a.5.5 0 0 0-.5-.5h-1Zm8.5 1a1 1 0 0 1 1-1h5v2h-5a1 1 0 0 1-1-1Zm1 3a1 1 0 1 0 0 2h5v-2h-5Z"/><path fill="#FCD53F" d="M11.5 13a.5.5 0 0 0-.5.5h1a.5.5 0 0 1 .5.5v1a.5.5 0 0 0 .5-.5v-1a.5.5 0 0 0-.5-.5h-1ZM3.5 20a.5.5 0 0 0-.5.5h1a.5.5 0 0 1 .5.5v1a.5.5 0 0 0 .5-.5v-1a.5.5 0 0 0-.5-.5h-1ZM11 17.5a.5.5 0 0 1 .5-.5h1a.5.5 0 0 1 .5.5v1a.5.5 0 0 1-.5.5v-1a.5.5 0 0 0-.5-.5h-1ZM11.5 25a.5.5 0 0 0-.5.5h1a.5.5 0 0 1 .5.5v1a.5.5 0 0 0 .5-.5v-1a.5.5 0 0 0-.5-.5h-1ZM15 17.5a.5.5 0 0 1 .5-.5h1a.5.5 0 0 1 .5.5v1a.5.5 0 0 1-.5.5v-1a.5.5 0 0 0-.5-.5h-1ZM15.5 21a.5.5 0 0 0-.5.5h1a.5.5 0 0 1 .5.5v1a.5.5 0 0 0 .5-.5v-1a.5.5 0 0 0-.5-.5h-1ZM25 21a1 1 0 0 0-.866.5H30V21h-5ZM25 25a1 1 0 0 0-.866.5H30V25h-5Z"/><path fill="#212121" d="M15 13.5a.5.5 0 0 1 .5-.5h1a.5.5 0 0 1 .5.5v1a.5.5 0 0 1-.5.5h-1a.5.5 0 0 1-.5-.5v-1Zm-12 3a.5.5 0 0 1 .5-.5h1a.5.5 0 0 1 .5.5v1a.5.5 0 0 1-.5.5h-1a.5.5 0 0 1-.5-.5v-1Zm0 8a.5.5 0 0 1 .5-.5h1a.5.5 0 0 1 .5.5v1a.5.5 0 0 1-.5.5h-1a.5.5 0 0 1-.5-.5v-1Zm8.5-3.5a.5.5 0 0 0-.5.5v1a.5.5 0 0 0 .5.5h1a.5.5 0 0 0 .5-.5v-1a.5.5 0 0 0-.5-.5h-1Zm4 4a.5.5 0 0 0-.5.5v1a.5.5 0 0 0 .5.5h1a.5.5 0 0 0 .5-.5v-1a.5.5 0 0 0-.5-.5h-1Z"/><path fill="#433B6B" d="M15 11h2v.5h-2V11ZM20.5 24a.5.5 0 0 0-.5-.5h-1.25a.25.25 0 0 1-.25-.25V12a.5.5 0 0 0-.5-.5h-1V11h1a1 1 0 0 1 1 1v11h1a1 1 0 0 1 1 1v6h-.5v-6Z"/><path fill="#F9C23C" d="M22 9.5a3.5 3.5 0 0 0 3.39-4.374c-.06-.236.186-.454.372-.296a3.5 3.5 0 1 1-4.933 4.933c-.157-.187.06-.434.297-.373.28.072.572.11.874.11Z"/><path fill="#F3EEF8" d="m5.075 3.851.201-.404a.25.25 0 0 1 .448 0l.201.404a.5.5 0 0 0 .224.224l.404.201a.25.25 0 0 1 0 .448l-.404.202a.5.5 0 0 0-.224.223l-.201.404a.25.25 0 0 1-.448 0l-.201-.404a.5.5 0 0 0-.224-.223l-.404-.202a.25.25 0 0 1 0-.448l.404-.201a.5.5 0 0 0 .224-.224Zm16.201-.404-.201.404a.5.5 0 0 1-.224.224l-.404.201a.25.25 0 0 0 0 .448l.404.202a.5.5 0 0 1 .224.223l.201.404a.25.25 0 0 0 .448 0l.201-.404a.5.5 0 0 1 .224-.223l.404-.202a.25.25 0 0 0 0-.448l-.404-.201a.5.5 0 0 1-.224-.224l-.201-.404a.25.25 0 0 0-.448 0Zm6 8-.201.404a.5.5 0 0 1-.224.224l-.404.202a.25.25 0 0 0 0 .447l.404.201a.5.5 0 0 1 .224.224l.201.404a.25.25 0 0 0 .448 0l.201-.404a.5.5 0 0 1 .224-.223l.404-.202a.25.25 0 0 0 0-.447l-.404-.202a.5.5 0 0 1-.224-.224l-.201-.404a.25.25 0 0 0-.448 0Zm-11-5.5-.368.737a.5.5 0 0 1-.224.224l-.737.368a.25.25 0 0 0 0 .448l.737.368a.5.5 0 0 1 .224.224l.368.737a.25.25 0 0 0 .448 0l.368-.737a.5.5 0 0 1 .224-.224l.737-.368a.25.25 0 0 0 0-.448l-.737-.368a.5.5 0 0 1-.224-.224l-.368-.737a.25.25 0 0 0-.448 0Z"/></svg>
